icons/svg/pmr_24.svg

<svg width="24" height="24" viewBox="0 0 24 24" xmlns="http://www.w3.org/2000/svg"><title>meetings/pmr_24</title><path d="M20.531 1.0003c1.362 0 2.469 1.107 2.469 2.469l0 17.061c0 1.362-1.107 2.47-2.469 2.47l-17.062 0c-1.362 0-2.469-1.108-2.469-2.47l0-17.061c0-1.362 1.107-2.469 2.469-2.469l17.062 0zM22 20.5303l0-17.061c0-.81-.659-1.469-1.469-1.469l-17.062 0c-.81 0-1.469.659-1.469 1.469l0 17.061c0 .811.659 1.47 1.469 1.47l17.062 0c.81 0 1.469-.659 1.469-1.47zm-4.4301-5.1353l.404 1.566c.064.247.011.507-.147.711-.162.209-.406.328-.672.328l-10.311 0c-.265 0-.509-.119-.67-.326-.158-.204-.212-.463-.148-.712l.404-1.567c.35-1.359 1.568-2.314 2.993-2.382-.863-.734-1.423-1.814-1.423-3.034 0-2.206 1.794-4 4-4 2.206 0 4 1.794 4 4 0 1.22-.56 2.3-1.422 3.034 1.422.068 2.641 1.023 2.992 2.382zM7.0479 17l9.903 0-.349-1.355c-.25-.968-1.149-1.645-2.184-1.645l-4.836 0c-1.036 0-1.934.676-2.183 1.645L7.0479 17zm1.952-7.021c0 1.655 1.346 3 3 3 1.654 0 3-1.345 3-3 0-1.654-1.346-3-3-3-1.654 0-3 1.346-3 3z" fill="#000" fill-rule="evenodd"/></svg>

<svg width="24" height="24" viewBox="0 0 24 24" xmlns="http://www.w3.org/2000/svg"><title>meetings/pmr_24</title><path d="M20.531 1C21.893 1 23 2.107 23 3.468l0 17.062c0 1.361-1.107 2.47-2.469 2.47L3.469 23C2.107 23 1 21.891 1 20.53L1 3.468C1 2.107 2.107 1 3.469 1l17.062 0zM22 20.53l0-17.062C22 2.659 21.341 2 20.531 2L3.469 2C2.659 2 2 2.659 2 3.468L2 20.53c0 .811.659 1.47 1.469 1.47l17.062 0c.81 0 1.469-.659 1.469-1.47zm-4.4301-5.1353l.404 1.566c.064.247.011.507-.147.711-.162.209-.406.328-.673.328l-10.31 0c-.265 0-.509-.119-.67-.326-.158-.204-.212-.463-.148-.712l.404-1.567c.349-1.359 1.568-2.314 2.993-2.382-.863-.735-1.423-1.815-1.423-3.034 0-2.207 1.794-4 4-4 2.206 0 4 1.793 4 4 0 1.219-.56 2.299-1.422 3.034 1.422.068 2.641 1.023 2.992 2.382zm-10.522 1.605l9.903 0-.349-1.355c-.25-.968-1.149-1.645-2.184-1.645l-4.836 0c-1.036 0-1.934.676-2.183 1.645l-.351 1.355zm1.952-7.021c0 1.655 1.346 3 3 3 1.654 0 3-1.345 3-3 0-1.654-1.346-3-3-3-1.654 0-3 1.346-3 3z" fill="#000" fill-rule="evenodd"/></svg>
